X:1
T:WHAR DID YOU COME FROM?
L:1/16
M:2/4
I:linebreak $
K:G
V:1 treble 
V:1
 GA | B2BB B2B2 | B2dB A2>A2 | c2c2c2c2 | e2dc B2D2 | B2B2B2B2 | B2dB A2>B2 | c2c2c2c2 | e2dc B2 |] %9
!p! dc |$ B2AG EGD2 |!f! EA[EA][EA] [FA]2!p! dc | B2AG EGD2 |!f! DG[B,G][B,G]!p! dc | BBAG EGDG | %15
!f! EA[EA][EA] [FA]2!p! dc | BBAG EGFA |$!f! DG[B,G][B,G] [B,G]2 |] %18
